X:1
T: Giornovichi
C:
R:Reel
Q: 232
K:F
M:4/4
L:1/8
|:c|fc c2 fc c2|de fg ec c2|df cf Bf Af|B1/4c1/4d3/2 cB AF Fc|
fc c2 fc c2|de fg ec c2|df cf Bf Af|B1/4c1/4d3/2 cB AF F:|
|:f|ba gf eg c'2|f2 ed cf af|ed cB Ac fa|bg af eg g2|
fc c2 ac c2|de fg ec c2|db ca Bg Af|B1/4c1/4d3/2 cB AF F:|
